docs/img/advantage/icon-money-bag.svg

<svg width="120" height="120" viewBox="0 0 120 120" fill="none" xmlns="http://www.w3.org/2000/svg">
<path fill-rule="evenodd" clip-rule="evenodd" d="M60.0974 15C48.8049 15 38.5174 18.73 32.4299 21.7775C31.8799 22.0525 31.3674 22.3225 30.8899 22.5825C29.9449 23.0975 29.1399 23.5775 28.4999 24L35.4249 34.195L38.6849 35.4925C51.4249 41.92 68.5099 41.92 81.2524 35.4925L84.9524 33.5725L91.4999 24C90.1438 23.1151 88.7335 22.3161 87.2774 21.6075C81.2199 18.5925 71.1774 15 60.0999 15H60.0974ZM43.9924 26.54C41.5402 26.0812 39.1183 25.4734 36.74 24.72C42.4424 22.1875 50.9399 19.5 60.0974 19.5C66.4399 19.5 72.4374 20.79 77.3974 22.425C71.5849 23.2425 65.3824 24.63 59.4724 26.3375C54.8224 27.6825 49.3874 27.5375 43.9924 26.54ZM83.8924 39.2L83.2774 39.51C69.2624 46.58 50.6724 46.58 36.6574 39.51L36.0749 39.215C15.02 62.3175 -1.05505 104.993 60.0974 104.993C121.25 104.993 104.782 61.52 83.8924 39.2ZM57.4999 60C56.1739 60 54.9021 60.5268 53.9644 61.4645C53.0267 62.4021 52.4999 63.6739 52.4999 65C52.4999 66.3261 53.0267 67.5979 53.9644 68.5355C54.9021 69.4732 56.1739 70 57.4999 70V60ZM62.4999 55V52.5H57.4999V55C54.8478 55 52.3042 56.0536 50.4289 57.9289C48.5535 59.8043 47.4999 62.3478 47.4999 65C47.4999 67.6522 48.5535 70.1957 50.4289 72.0711C52.3042 73.9464 54.8478 75 57.4999 75V85C55.3249 85 53.4725 83.6125 52.7824 81.6675C52.6801 81.3493 52.5149 81.0548 52.2968 80.8016C52.0786 80.5483 51.8119 80.3413 51.5124 80.193C51.2128 80.0446 50.8866 79.9578 50.5529 79.9377C50.2192 79.9176 49.8849 79.9646 49.5697 80.0759C49.2546 80.1873 48.9649 80.3607 48.7179 80.586C48.4709 80.8112 48.2716 81.0837 48.1318 81.3873C47.992 81.691 47.9145 82.0196 47.9038 82.3537C47.8932 82.6878 47.9497 83.0206 48.07 83.3325C48.7596 85.2824 50.0367 86.9707 51.7255 88.1647C53.4142 89.3588 55.4317 90 57.4999 90V92.5H62.4999V90C65.1521 90 67.6956 88.9464 69.571 87.0711C71.4464 85.1957 72.4999 82.6522 72.4999 80C72.4999 77.3478 71.4464 74.8043 69.571 72.9289C67.6956 71.0536 65.1521 70 62.4999 70V60C64.6749 60 66.5274 61.3875 67.2174 63.3325C67.3198 63.6507 67.485 63.9452 67.7031 64.1984C67.9213 64.4517 68.188 64.6587 68.4875 64.807C68.7871 64.9554 69.1133 65.0422 69.447 65.0623C69.7807 65.0824 70.115 65.0354 70.4302 64.9241C70.7453 64.8127 71.035 64.6393 71.282 64.414C71.5289 64.1888 71.7282 63.9163 71.8681 63.6127C72.0079 63.309 72.0854 62.9804 72.0961 62.6463C72.1067 62.3122 72.0502 61.9794 71.9299 61.6675C71.2403 59.7176 69.9632 58.0293 68.2744 56.8353C66.5856 55.6412 64.5682 55 62.4999 55ZM62.4999 75V85C63.826 85 65.0978 84.4732 66.0355 83.5355C66.9732 82.5979 67.4999 81.3261 67.4999 80C67.4999 78.6739 66.9732 77.4021 66.0355 76.4645C65.0978 75.5268 63.826 75 62.4999 75Z" fill="#FE9E45"/>
</svg>

<svg width="120" height="120" fill="none" xmlns="http://www.w3.org/2000/svg"><path fill-rule="evenodd" clip-rule="evenodd" d="M60.097 15c-11.292 0-21.58 3.73-27.667 6.777-.55.275-1.063.546-1.54.805-.945.515-1.75.995-2.39 1.418l6.925 10.195 3.26 1.297c12.74 6.428 29.825 6.428 42.567 0l3.7-1.92L91.5 24a38.774 38.774 0 00-4.223-2.392C81.22 18.593 71.177 15 60.1 15h-.003zM43.992 26.54a61.416 61.416 0 01-7.252-1.82c5.702-2.532 14.2-5.22 23.357-5.22 6.343 0 12.34 1.29 17.3 2.925-5.812.817-12.015 2.205-17.925 3.912-4.65 1.346-10.085 1.2-15.48.203zm39.9 12.66l-.615.31c-14.015 7.07-32.605 7.07-46.62 0l-.582-.295c-21.055 23.102-37.13 65.778 24.022 65.778 61.153 0 44.685-43.473 23.795-65.793zM57.5 60a5 5 0 000 10V60zm5-5v-2.5h-5V55a10 10 0 000 20v10a5.005 5.005 0 01-4.718-3.332 2.499 2.499 0 10-4.712 1.664A10.002 10.002 0 0057.5 90v2.5h5V90a10 10 0 000-20V60a5.005 5.005 0 014.717 3.333 2.5 2.5 0 104.713-1.666A10.002 10.002 0 0062.5 55zm0 20v10a5 5 0 000-10z" fill="#FE9E45"/></svg>
